X:1
T:Planxty Plunket
T:Planxty Plunket
T:Carolan
C:Carolan
L:1/8
M:6/4
K:G
V:1 treble 
V:1
 e2 A2 BA G2 E2 D2 | E2 G2 G2 B3 c d2 | c2 B2 A2 a2 g2 a2 | g2 e2 g2 e2 c2 e2 | d4 d2 dcde d2 | %5
 edef g2 g3 a fd | e2 a2 a2 a3 b a2 | g2 e2 e2 e4 a2 | g2 e2 e2 d2 B2 B2 | e2 A2 A2 G2 E2 E2 | %10
 AB c2 A2 Bc d2 B2 | cd e2 E2 A2 A2 A2 :: E2 G2 G2 GFGA G2 | E2 A2 A2 AGAB A2 | G2 B2 B2 G2 B2 B2 | %15
 c2 e2 e2 e4 ga | b2 ga b2 a2 fg a2 | g2 ef g2 f2 de | g2 ef g2 a2 fg a2 | g2 B2 B2 B4 g2 | %20
 d2 B2 G2 d2 B2 G2 | e2 c2 A2 e2 c2 A2 | AB c2 A2 G2 E2 [Cc]2 | E2 A2 A2 A4 :| %24

